X: 1499
T: Nikrîz Aranağme (Evfer)
C: ?
O: Turkey
F: http://compmusic.upf.edu/node/140
N: nikriz--aranagme--evfer--1--
N: makam= nikriz
N: form= aranagme
N: usul= evfer = 9/8
M: 9/8
L: 1/16
K: C _7/8B ^3/4f ^c 
Q: 1/4=168
%%MIDI tuningsystem comma53
z2DG G2G2 BB2A GFG4 | z2 Gdd2 d2e=f2edc d4  | 
w:   |   | 
z2dg gg2^2/4f =ff2e d3/2c/BA G2 | \
w:   | 
z2 DGG2 G2BB2AGF E2F2  | 
w:   | 
G6d2 cd.B.A G6 | z2 DGG2 G2BB2AGF G4  | \
w:   |   | 
z2Gd d2d2 e=f2e dcd4 | 
w:   | 
z2 dggg2^2/4f=ff2ed3/2c/ BAG2  | z2DG G2G2 BB2A GFE2 F2 | 
w:   |   | 
G6 d2cd .B.AG6  | |


